src/static/managed/logos/scaleway-icon.svg

<svg width="540" height="229" fill="none" xmlns="http://www.w3.org/2000/svg"><path d="M90.957 134.315a4.629 4.629 0 003.283 1.335v-.02h12.58a6.004 6.004 0 005.25-5.63v-18.12c0-1.22-.485-2.39-1.347-3.253a4.604 4.604 0 00-6.506 0 4.604 4.604 0 00-1.347 3.253v11.51c0 .796-.316 1.559-.879 2.121a2.996 2.996 0 01-2.121.879h-5.69a4.63 4.63 0 00-3.223 7.925zm-7.5-13.552a4.603 4.603 0 003.253 1.347 4.6 4.6 0 004.59-4.6V106a2.998 2.998 0 013-3h5.7a4.633 4.633 0 003.272-1.378 4.627 4.627 0 001.328-3.292 4.672 4.672 0 00-4.66-4.59H87.35a6 6 0 00-5.24 5.64v18.13c0 1.22.485 2.39 1.347 3.253z" fill="#4F0599"/><path fill-rule="evenodd" clip-rule="evenodd" d="M79.17 76.53H102a27.217 27.217 0 0125.187 16.778 27.214 27.214 0 012.083 10.422V140a14.37 14.37 0 01-13.13 12.79H92a27.249 27.249 0 01-19.291-7.968 27.244 27.244 0 01-7.989-19.282V91a14.48 14.48 0 0114.45-14.47zm29.703 10.67a18.11 18.11 0 00-6.953-1.38l-22.4-.04a5.66 5.66 0 00-5.58 5.68v33.91a18.125 18.125 0 0011.19 16.753 18.14 18.14 0 006.94 1.377h23.18a5.674 5.674 0 004.8-4.63V104a18.118 18.118 0 00-5.287-12.858 18.1 18.1 0 00-5.89-3.943z" fill="#4F0599"/><path d="M169 144.51a25.642 25.642 0 01-12.06-3.11 28.129 28.129 0 01-9.74-8.36 1.998 1.998 0 01.34-2.84l4.66-4.14a1.999 1.999 0 011.38-.52h.34a2.143 2.143 0 011.47.95 18.771 18.771 0 006.29 6.21 15.762 15.762 0 008.1 2.24c3.1 0 5.43-.61 6.89-1.9a5.89 5.89 0 002.07-4.91 6.204 6.204 0 00-2.24-5.26c-1.813-1.38-4.743-2.673-8.79-3.88-12-2.93-18-8.62-18-17 0-5.17 1.72-9.22 5.17-12.06s7.93-4.14 13.62-4.14a24.325 24.325 0 0120 9.48 2.138 2.138 0 01-.26 2.93l-4.53 3.8a1.93 1.93 0 01-1.38.52h-.26a2.006 2.006 0 01-1.46-.86 16.213 16.213 0 00-5.34-4.91 14.639 14.639 0 00-6.81-1.56 11.43 11.43 0 00-6.64 1.81 5.373 5.373 0 00-2.24 4.49 5.615 5.615 0 002.07 4.65c1.64 1.38 4.57 2.5 8.7 3.53 5.61 1.56 10 3.62 13.19 6.3 3.36 2.93 5.09 7 5.09 12.15a15.082 15.082 0 01-2.59 8.53 16.18 16.18 0 01-7 5.78 22.435 22.435 0 01-10.04 2.08zm44.62.17c-3.64.09-7.229-.868-10.34-2.76a18.654 18.654 0 01-7.07-7.59 22.575 22.575 0 01-2.5-10.86 21.997 21.997 0 012.5-10.77 18.732 18.732 0 017.07-7.58 20.301 20.301 0 0110.25-2.76 16.861 16.861 0 018.62 2.15 23.296 23.296 0 016.55 5.78 2.137 2.137 0 01-.34 2.93l-3.79 3a2.329 2.329 0 01-1.3.44h-.34a2.004 2.004 0 01-1.38-.87 9.296 9.296 0 00-7.93-4.48 10.541 10.541 0 00-5.34 1.47 9.758 9.758 0 00-3.71 4.22 16.078 16.078 0 000 12.93 10.002 10.002 0 003.71 4.31 8.931 8.931 0 005.34 1.46 10.068 10.068 0 005-1 11.483 11.483 0 003.62-3.1 2.131 2.131 0 012.84-.43l4.06 2.84a2.098 2.098 0 01.51 2.93.098.098 0 01-.003.034.066.066 0 01-.017.029.068.068 0 01-.027.02.075.075 0 01-.033.007 20.457 20.457 0 01-6.9 5.51 19.907 19.907 0 01-9.05 2.14z" fill="#4F0599"/><path fill-rule="evenodd" clip-rule="evenodd" d="M242.173 141.994a19.004 19.004 0 0010.147 2.686 16.653 16.653 0 008.11-1.98c.78-.47 1.55-.95 2.33-1.47v.09a2.091 2.091 0 002.07 2.06H270a2.094 2.094 0 001.455-.608c.386-.385.607-.906.615-1.452v-35.69a2.097 2.097 0 00-2.07-2.07h-5.18a2.097 2.097 0 00-2.07 2.07v.18a14.166 14.166 0 00-2.41-1.56 18.187 18.187 0 00-8.19-1.89A18.8 18.8 0 00235 112.7a24.399 24.399 0 000 21.63 18.998 18.998 0 007.173 7.664zm4.717-29.204a9.992 9.992 0 015.26-1.47 8.92 8.92 0 015.43 1.55 10.294 10.294 0 013.7 4.23 16 16 0 010 12.92 9.845 9.845 0 01-3.7 4.31 10.916 10.916 0 01-5.43 1.47 8.63 8.63 0 01-5.26-1.47 9.929 9.929 0 01-3.71-4.31 14.451 14.451 0 01-1.37-6.55 15.119 15.119 0 011.37-6.46 11.07 11.07 0 013.71-4.22z" fill="#4F0599"/><path d="M280.94 86.09h5.17a2.098 2.098 0 012.07 2.07v53.18a2.097 2.097 0 01-2.07 2.07h-5.17a2.097 2.097 0 01-2.07-2.07V88.16a1.99 1.99 0 01.585-1.486 2 2 0 011.485-.584zm89.327 56.997c.363.265.804.4 1.253.383l5.33-.01a2.12 2.12 0 002-1.46l11.72-35.71a2.093 2.093 0 00-1.21-2.58 3.658 3.658 0 00-.86-.18h-4.92a2.127 2.127 0 00-2 1.47l-7.07 22-7-22a1.998 1.998 0 00-2-1.47h-5.09a2.127 2.127 0 00-2 1.47l-7.26 22.27-7.16-22.24a1.998 1.998 0 00-2-1.47h-5.47c-.388.004-.77.093-1.12.26a2.11 2.11 0 00-1 2.5l11.81 35.69a2 2 0 002 1.46h5.17a2.001 2.001 0 002-1.38l7.32-21.37 6.81 21.29a2 2 0 00.747 1.077z" fill="#4F0599"/><path fill-rule="evenodd" clip-rule="evenodd" d="M411.6 144.68a19.059 19.059 0 01-17.32-10.35 24.465 24.465 0 010-21.63 18.802 18.802 0 017.123-7.666 18.8 18.8 0 0110.117-2.674c2.821.009 5.599.695 8.1 2 .853.435 1.661.954 2.41 1.55v-.17a2.176 2.176 0 012.07-2.16h5.26a2.097 2.097 0 012.07 2.07v35.69a2.087 2.087 0 01-.616 1.451 2.086 2.086 0 01-1.454.609h-5.17a2.086 2.086 0 01-1.454-.609 2.087 2.087 0 01-.616-1.451v-.09a23.103 23.103 0 01-2.33 1.47 17.252 17.252 0 01-8.19 1.96zm-.08-33.36a9.992 9.992 0 00-5.26 1.47 11 11 0 00-3.71 4.22 13.902 13.902 0 00-1.38 6.46 14.455 14.455 0 001.38 6.55 9.929 9.929 0 003.71 4.31 8.636 8.636 0 005.26 1.47c1.88.004 3.727-.504 5.34-1.47a9.929 9.929 0 003.71-4.31 16 16 0 000-12.92 9.789 9.789 0 00-3.71-4.23 8.66 8.66 0 00-5.34-1.55zm-86.54 19.172a2.297 2.297 0 011.64.398l3.53 2.57a.09.09 0 00.026.064c.017.016.04.026.064.026a2.327 2.327 0 01.833 2.454 2.317 2.317 0 01-.403.816 20.925 20.925 0 01-6.29 5.43 22.174 22.174 0 01-10.78 2.5 20.626 20.626 0 01-10.34-2.75 19.339 19.339 0 01-7.07-7.59 22.722 22.722 0 01-2.5-10.86 23.554 23.554 0 012.5-10.77 18.502 18.502 0 017-7.59 19.793 19.793 0 0110.17-2.76 18.805 18.805 0 0116.73 9.92 20.601 20.601 0 012.49 10.08c.021.804-.005 1.609-.08 2.41a2.073 2.073 0 01-2.07 1.9h-27a13.174 13.174 0 002.85 5.95 9.104 9.104 0 007.32 3.1 13.393 13.393 0 006.55-1.47 12.208 12.208 0 003.36-3 2.301 2.301 0 011.47-.828zm-15.046-18.647a9.008 9.008 0 00-3.054 1.975 11.397 11.397 0 00-2.88 4.4h18.74a9.789 9.789 0 00-2.59-4.74c-1.55-1.56-3.79-2.24-6.63-2.24a8.984 8.984 0 00-3.586.605z" fill="#4F0599"/><path d="M473.57 104.51a2.269 2.269 0 00-1.72-.86h-4.91a2.136 2.136 0 00-2 1.38l-10.08 26-9.57-26.12a2.174 2.174 0 00-2-1.29h-5.43a2.009 2.009 0 00-.985.249 2.009 2.009 0 00-.735.701 2.055 2.055 0 00-.18 2L450 143.64a5.508 5.508 0 01-2.07 3.45c-1.289.859-3.786.95-5.167 1h-.003a2.262 2.262 0 00-2.15 2.24v3.53a2.223 2.223 0 001.38 2.075c.273.111.565.168.86.165l.516.002.125.001c2.168.015 5.308.037 7.809-1.213 5.024-2.653 6.214-5.87 7.557-9.498.176-.474.354-.954.543-1.442l14.39-37.58a2.429 2.429 0 00-.22-1.86z" fill="#4F0599"/></svg>

<svg width="540" height="229" viewBox="0 0 540 229" fill="none" xmlns="http://www.w3.org/2000/svg">
<path d="M90.9573 134.315C91.8312 135.178 93.012 135.658 94.24 135.65V135.63H106.82C108.216 135.456 109.507 134.797 110.467 133.768C111.427 132.739 111.994 131.405 112.07 130V111.88C112.07 110.66 111.585 109.49 110.723 108.627C109.86 107.765 108.69 107.28 107.47 107.28C106.25 107.28 105.08 107.765 104.217 108.627C103.355 109.49 102.87 110.66 102.87 111.88V123.39C102.87 124.186 102.554 124.949 101.991 125.511C101.429 126.074 100.666 126.39 99.87 126.39H94.18C92.952 126.398 91.7775 126.893 90.9149 127.767C90.0522 128.641 89.572 129.822 89.58 131.05C89.5879 132.278 90.0834 133.452 90.9573 134.315Z" fill="#4F0599"/>
<path d="M83.4573 120.763C84.32 121.625 85.49 122.11 86.71 122.11C87.9282 122.107 89.0957 121.622 89.9562 120.759C90.8167 119.897 91.3 118.728 91.3 117.51V106C91.3 105.204 91.6161 104.441 92.1787 103.879C92.7413 103.316 93.5043 103 94.3 103H100C100.609 102.997 101.212 102.874 101.773 102.638C102.335 102.401 102.844 102.056 103.272 101.622C103.699 101.188 104.037 100.674 104.265 100.109C104.493 99.5437 104.607 98.9392 104.6 98.33C104.579 97.1071 104.079 95.9412 103.208 95.0829C102.336 94.2246 101.163 93.7424 99.94 93.74H87.35C85.9538 93.9163 84.664 94.5778 83.7062 95.6088C82.7483 96.6398 82.1833 97.9746 82.11 99.38V117.51C82.11 118.73 82.5946 119.9 83.4573 120.763Z" fill="#4F0599"/>
<path fill-rule="evenodd" clip-rule="evenodd" d="M79.17 76.53H102C105.577 76.5234 109.12 77.2219 112.427 78.5857C115.734 79.9494 118.74 81.9516 121.273 84.4777C123.805 87.0039 125.815 90.0045 127.187 93.3079C128.56 96.6113 129.267 100.153 129.27 103.73V140C128.913 143.327 127.406 146.425 125.009 148.76C122.612 151.095 119.475 152.52 116.14 152.79H92C88.4186 152.795 84.8713 152.094 81.5611 150.727C78.2509 149.36 75.2428 147.353 72.709 144.822C70.1752 142.291 68.1653 139.285 66.7945 135.977C65.4236 132.668 64.7187 129.121 64.72 125.54V91C64.7226 87.1665 66.2453 83.4906 68.954 80.7781C71.6628 78.0656 75.3366 76.5379 79.17 76.53ZM108.873 87.1994C106.669 86.2861 104.306 85.8173 101.92 85.82L79.52 85.78C78.0293 85.801 76.6071 86.4094 75.5624 87.4729C74.5176 88.5364 73.9346 89.9691 73.94 91.46V125.37C73.9387 127.751 74.4067 130.109 75.3174 132.31C76.228 134.51 77.5634 136.509 79.2472 138.193C80.931 139.877 82.9302 141.212 85.1304 142.123C87.3306 143.033 89.6888 143.501 92.07 143.5H115.25C116.437 143.334 117.54 142.797 118.403 141.965C119.265 141.133 119.842 140.05 120.05 138.87V104C120.059 101.614 119.597 99.25 118.69 97.0434C117.782 94.8368 116.448 92.8312 114.763 91.1419C113.079 89.4525 111.077 88.1127 108.873 87.1994Z" fill="#4F0599"/>
<path d="M169 144.51C164.785 144.48 160.643 143.412 156.94 141.4C153.092 139.401 149.759 136.54 147.2 133.04C147.033 132.832 146.909 132.594 146.836 132.337C146.762 132.081 146.741 131.813 146.772 131.549C146.804 131.284 146.888 131.028 147.02 130.797C147.152 130.565 147.329 130.362 147.54 130.2L152.2 126.06C152.577 125.717 153.071 125.531 153.58 125.54H153.92C154.218 125.586 154.503 125.695 154.756 125.859C155.009 126.022 155.225 126.237 155.39 126.49C156.962 129.031 159.119 131.16 161.68 132.7C164.127 134.166 166.927 134.94 169.78 134.94C172.88 134.94 175.21 134.33 176.67 133.04C177.377 132.442 177.933 131.686 178.293 130.833C178.653 129.98 178.806 129.054 178.74 128.13C178.816 127.138 178.652 126.142 178.262 125.226C177.873 124.311 177.268 123.503 176.5 122.87C174.687 121.49 171.757 120.197 167.71 118.99C155.71 116.06 149.71 110.37 149.71 101.99C149.71 96.8201 151.43 92.7701 154.88 89.9301C158.33 87.0901 162.81 85.7901 168.5 85.7901C172.346 85.6763 176.164 86.4762 179.64 88.1242C183.117 89.7721 186.153 92.2211 188.5 95.2701C188.839 95.6991 189.002 96.2419 188.953 96.7868C188.905 97.3317 188.65 97.8375 188.24 98.2001L183.71 102C183.337 102.349 182.841 102.536 182.33 102.52H182.07C181.779 102.492 181.497 102.401 181.244 102.252C180.992 102.104 180.776 101.902 180.61 101.66C179.224 99.6412 177.398 97.9626 175.27 96.7501C173.159 95.6881 170.823 95.1529 168.46 95.1901C166.113 95.0969 163.795 95.7289 161.82 97.0001C161.109 97.5095 160.534 98.1848 160.143 98.9673C159.753 99.7498 159.56 100.616 159.58 101.49C159.535 102.373 159.699 103.255 160.058 104.063C160.418 104.871 160.963 105.583 161.65 106.14C163.29 107.52 166.22 108.64 170.35 109.67C175.96 111.23 180.35 113.29 183.54 115.97C186.9 118.9 188.63 122.97 188.63 128.12C188.646 131.159 187.743 134.133 186.04 136.65C184.306 139.205 181.877 141.211 179.04 142.43C175.899 143.889 172.462 144.601 169 144.51Z" fill="#4F0599"/>
<path d="M213.62 144.68C209.98 144.77 206.391 143.812 203.28 141.92C200.253 140.109 197.802 137.478 196.21 134.33C194.482 130.976 193.623 127.242 193.71 123.47C193.613 119.726 194.473 116.019 196.21 112.7C197.807 109.559 200.257 106.931 203.28 105.12C206.391 103.307 209.929 102.355 213.53 102.36C216.544 102.293 219.521 103.036 222.15 104.51C224.678 106.006 226.901 107.968 228.7 110.29C229.03 110.729 229.179 111.278 229.115 111.823C229.052 112.368 228.782 112.868 228.36 113.22L224.57 116.22C224.191 116.494 223.738 116.647 223.27 116.66H222.93C222.652 116.62 222.385 116.522 222.147 116.372C221.91 116.222 221.706 116.024 221.55 115.79C220.723 114.426 219.56 113.297 218.171 112.513C216.782 111.728 215.215 111.314 213.62 111.31C211.741 111.315 209.897 111.823 208.28 112.78C206.656 113.793 205.366 115.26 204.57 117C203.675 119.038 203.212 121.239 203.212 123.465C203.212 125.691 203.675 127.892 204.57 129.93C205.364 131.695 206.652 133.193 208.28 134.24C209.86 135.28 211.73 135.791 213.62 135.7C215.345 135.801 217.067 135.457 218.62 134.7C220.03 133.931 221.264 132.875 222.24 131.6C222.574 131.187 223.051 130.914 223.577 130.834C224.102 130.755 224.638 130.874 225.08 131.17L229.14 134.01C229.366 134.169 229.559 134.37 229.707 134.604C229.855 134.837 229.956 135.097 230.003 135.369C230.05 135.641 230.044 135.92 229.983 136.19C229.922 136.459 229.809 136.714 229.65 136.94C229.651 136.951 229.65 136.963 229.647 136.974C229.644 136.985 229.638 136.995 229.63 137.003C229.623 137.012 229.614 137.018 229.603 137.023C229.593 137.028 229.581 137.03 229.57 137.03C227.699 139.347 225.344 141.227 222.67 142.54C219.865 143.958 216.763 144.691 213.62 144.68Z" fill="#4F0599"/>
<path fill-rule="evenodd" clip-rule="evenodd" d="M242.173 141.994C245.236 143.824 248.752 144.755 252.32 144.68C255.148 144.719 257.939 144.038 260.43 142.7C261.21 142.23 261.98 141.75 262.76 141.23V141.32C262.768 141.866 262.989 142.387 263.376 142.772C263.762 143.156 264.284 143.375 264.83 143.38H270C270.546 143.375 271.068 143.156 271.455 142.772C271.841 142.387 272.062 141.866 272.07 141.32V105.63C272.062 105.083 271.842 104.561 271.455 104.175C271.069 103.788 270.547 103.568 270 103.56H264.82C264.273 103.568 263.751 103.788 263.365 104.175C262.978 104.561 262.758 105.083 262.75 105.63V105.81C262.002 105.21 261.194 104.687 260.34 104.25C257.795 102.989 254.99 102.342 252.15 102.36C248.608 102.292 245.118 103.227 242.084 105.056C239.049 106.886 236.594 109.536 235 112.7C233.337 116.063 232.472 119.764 232.472 123.515C232.472 127.266 233.337 130.967 235 134.33C236.624 137.508 239.11 140.164 242.173 141.994ZM246.89 112.79C248.473 111.821 250.294 111.312 252.15 111.32C254.08 111.235 255.986 111.779 257.58 112.87C259.182 113.91 260.463 115.374 261.28 117.1C262.178 119.135 262.642 121.335 262.642 123.56C262.642 125.785 262.178 127.985 261.28 130.02C260.497 131.789 259.21 133.288 257.58 134.33C255.929 135.286 254.057 135.793 252.15 135.8C250.284 135.892 248.438 135.377 246.89 134.33C245.26 133.286 243.97 131.788 243.18 130.02C242.217 127.974 241.748 125.73 241.81 123.47C241.785 121.242 242.253 119.036 243.18 117.01C244.033 115.308 245.311 113.854 246.89 112.79Z" fill="#4F0599"/>
<path d="M280.94 86.09H286.11C286.657 86.0978 287.179 86.3184 287.565 86.7049C287.952 87.0914 288.172 87.6134 288.18 88.16V141.34C288.172 141.887 287.952 142.409 287.565 142.795C287.179 143.182 286.657 143.402 286.11 143.41H280.94C280.393 143.402 279.871 143.182 279.485 142.795C279.098 142.409 278.878 141.887 278.87 141.34V88.16C278.86 87.8856 278.907 87.612 279.008 87.3564C279.108 87.1009 279.26 86.8687 279.455 86.6745C279.649 86.4803 279.881 86.3282 280.136 86.2276C280.392 86.1271 280.666 86.0802 280.94 86.09Z" fill="#4F0599"/>
<path d="M370.267 143.087C370.63 143.352 371.071 143.487 371.52 143.47L376.85 143.46C377.294 143.457 377.726 143.314 378.085 143.052C378.444 142.79 378.712 142.422 378.85 142L390.57 106.29C390.732 105.787 390.697 105.241 390.473 104.762C390.248 104.283 389.851 103.907 389.36 103.71C389.082 103.616 388.793 103.555 388.5 103.53H383.58C383.135 103.535 382.702 103.68 382.344 103.944C381.985 104.207 381.718 104.577 381.58 105L374.51 127L367.51 105C367.391 104.565 367.129 104.184 366.766 103.917C366.403 103.65 365.96 103.514 365.51 103.53H360.42C359.975 103.535 359.542 103.68 359.184 103.944C358.825 104.207 358.558 104.577 358.42 105L351.16 127.27L344 105.03C343.881 104.595 343.619 104.214 343.256 103.947C342.893 103.68 342.45 103.544 342 103.56H336.53C336.142 103.564 335.76 103.653 335.41 103.82C334.978 104.055 334.642 104.433 334.459 104.89C334.277 105.346 334.259 105.852 334.41 106.32L346.22 142.01C346.341 142.443 346.604 142.822 346.967 143.087C347.33 143.352 347.771 143.487 348.22 143.47H353.39C353.829 143.491 354.262 143.368 354.624 143.118C354.985 142.869 355.254 142.508 355.39 142.09L362.71 120.72L369.52 142.01C369.641 142.443 369.904 142.822 370.267 143.087Z" fill="#4F0599"/>
<path fill-rule="evenodd" clip-rule="evenodd" d="M411.6 144.68C408.034 144.748 404.52 143.814 401.458 141.985C398.396 140.155 395.909 137.503 394.28 134.33C392.622 130.966 391.76 127.265 391.76 123.515C391.76 119.764 392.622 116.064 394.28 112.7C395.881 109.522 398.351 106.864 401.403 105.034C404.454 103.203 407.963 102.276 411.52 102.36C414.341 102.369 417.119 103.055 419.62 104.36C420.473 104.795 421.281 105.314 422.03 105.91V105.74C422.034 105.184 422.251 104.65 422.636 104.249C423.021 103.847 423.545 103.608 424.1 103.58H429.36C429.907 103.588 430.429 103.808 430.815 104.195C431.202 104.581 431.422 105.103 431.43 105.65V141.34C431.422 141.886 431.201 142.407 430.814 142.791C430.428 143.176 429.906 143.395 429.36 143.4H424.19C423.644 143.395 423.122 143.176 422.736 142.791C422.349 142.407 422.128 141.886 422.12 141.34V141.25C421.373 141.786 420.595 142.277 419.79 142.72C417.264 144.04 414.45 144.713 411.6 144.68ZM411.52 111.32C409.664 111.312 407.843 111.821 406.26 112.79C404.679 113.852 403.4 115.306 402.55 117.01C401.578 119.021 401.104 121.237 401.17 123.47C401.111 125.731 401.584 127.975 402.55 130.02C403.34 131.788 404.63 133.286 406.26 134.33C407.808 135.376 409.654 135.892 411.52 135.8C413.4 135.804 415.247 135.296 416.86 134.33C418.49 133.286 419.78 131.788 420.57 130.02C421.468 127.985 421.932 125.785 421.932 123.56C421.932 121.335 421.468 119.135 420.57 117.1C419.774 115.357 418.484 113.887 416.86 112.87C415.299 111.78 413.422 111.236 411.52 111.32Z" fill="#4F0599"/>
<path fill-rule="evenodd" clip-rule="evenodd" d="M324.98 130.492C325.558 130.412 326.144 130.554 326.62 130.89L330.15 133.46C330.15 133.484 330.159 133.507 330.176 133.524C330.193 133.54 330.216 133.55 330.24 133.55C330.483 133.736 330.687 133.969 330.84 134.234C330.994 134.499 331.093 134.792 331.133 135.096C331.173 135.399 331.153 135.708 331.073 136.004C330.994 136.3 330.857 136.577 330.67 136.82C328.957 139.032 326.819 140.879 324.38 142.25C321.056 143.981 317.347 144.841 313.6 144.75C309.971 144.759 306.405 143.81 303.26 142C300.256 140.161 297.812 137.537 296.19 134.41C294.468 131.054 293.609 127.321 293.69 123.55C293.657 119.812 294.514 116.121 296.19 112.78C297.756 109.637 300.184 107.004 303.19 105.19C306.268 103.368 309.783 102.414 313.36 102.43C316.788 102.402 320.158 103.311 323.107 105.06C326.055 106.808 328.47 109.329 330.09 112.35C331.767 115.442 332.624 118.912 332.58 122.43C332.601 123.234 332.575 124.039 332.5 124.84C332.457 125.359 332.22 125.843 331.837 126.195C331.453 126.547 330.951 126.742 330.43 126.74H303.43C303.86 128.933 304.841 130.981 306.28 132.69C307.187 133.726 308.316 134.544 309.584 135.08C310.852 135.617 312.225 135.86 313.6 135.79C315.873 135.864 318.127 135.358 320.15 134.32C321.446 133.537 322.586 132.52 323.51 131.32C323.877 130.868 324.403 130.572 324.98 130.492ZM309.934 111.845C308.792 112.289 307.753 112.961 306.88 113.82C305.59 115.042 304.604 116.549 304 118.22H322.74C322.338 116.428 321.441 114.786 320.15 113.48C318.6 111.92 316.36 111.24 313.52 111.24C312.296 111.195 311.076 111.401 309.934 111.845Z" fill="#4F0599"/>
<path d="M473.57 104.51C473.364 104.249 473.103 104.037 472.806 103.888C472.509 103.739 472.182 103.658 471.85 103.65H466.94C466.506 103.65 466.082 103.782 465.725 104.029C465.368 104.275 465.094 104.624 464.94 105.03L454.86 131.03L445.29 104.91C445.118 104.524 444.837 104.197 444.482 103.968C444.127 103.739 443.713 103.618 443.29 103.62H437.86C437.516 103.617 437.177 103.703 436.875 103.869C436.574 104.036 436.321 104.277 436.14 104.57C435.941 104.86 435.82 105.196 435.788 105.546C435.757 105.897 435.816 106.249 435.96 106.57L450 143.64C449.77 145.01 449.03 146.242 447.93 147.09C446.641 147.949 444.144 148.04 442.763 148.09L442.76 148.09C442.183 148.118 441.639 148.366 441.239 148.782C440.84 149.199 440.614 149.753 440.61 150.33V153.86C440.607 154.155 440.664 154.447 440.775 154.72C440.887 154.993 441.052 155.241 441.26 155.45C441.469 155.658 441.717 155.823 441.99 155.935C442.263 156.046 442.555 156.103 442.85 156.1C443.014 156.1 443.187 156.101 443.366 156.102L443.491 156.103C445.659 156.118 448.799 156.14 451.3 154.89C456.324 152.237 457.514 149.02 458.857 145.392C459.033 144.918 459.211 144.438 459.4 143.95L473.79 106.37C473.878 106.061 473.904 105.737 473.866 105.418C473.829 105.099 473.728 104.79 473.57 104.51Z" fill="#4F0599"/>
</svg>
